X:1
T:Title
%%score { ( 1 3 ) | ( 2 4 ) }
L:1/8
M:4/4
K:Bb
V:1 treble nm="Grand Piano"
V:3 treble 
V:2 bass 
V:4 bass 
V:1
 z4 z2[Q:1/4=108] [B,D]>[CE] | [DF]2 [DF]2 [Fd]2 [Ec]2 | [DB]>[CA] [DB]>[B,D] [B,DF]2 F>B | A6 z2 | %4
[M:3/4] B6[K:bass] |[M:1/4] D>[CE] |[M:4/4][K:treble] [DF]2 [DF]2 [Fd]2 [Ec]2 | %7
 [DB]>[CA] [DB]>D [DF]2 [FB]>[FB] | A2 c2 G2 A2 | [DB]6 z2 | [DF]6 z2 | [EG]6 z2 | %12
 [=Ec]>[GB] [FA]>B c2 A2 | [DB]>[CA] [FB]>c d2 [DB]2 | [DF]6 z2 |[M:9/8] B,2 B,- B, c2- cB>B | %16
[M:4/4] A2 F2 d2 c2 |[M:3/4] [DB]6 |] %18
V:2
 z4 z2 [B,,F,]>[B,,F,] | [B,,B,]2 [B,,B,]2 [B,,F,]2 [B,,F,]2 | %2
 [B,,B,]>[B,,B,] [B,,B,]>B,, B,,2 D>D | E6 z2 |[M:3/4] D6 |[M:1/4] [B,,F,B,]>[B,,F,] | %6
[M:4/4] [B,,B,]2 [B,,B,]2 [B,,B,]2 [B,,F,]2 | %7
 [B,,F,]>[B,,F,] [B,,B,]>[B,,B,] [B,,B,]2 [D,B,]>[D,B,] | [F,E]2 [F,A,E]2 [F,B,E]2 [F,CE]2 | %9
 [B,,B,]6 z2 | [B,,B,]2 B,,2 B,,2 z A | E,2 E,2 E,2 [E,G,]2 | [C,C]2 z z/ =E/ [F,A,_E]2 [F,CE]2 | %13
 [B,,B,]>[B,,B,] [D,B,]>[K:treble][F,A,F] [B,F]2[K:bass] [B,,B,]2 | [B,,B,]2 B,,2 B,,2 z A | %15
[M:9/8] E,2 E,- E, [E,G,]2- [E,G,][E,G,E]>[E,G,E] |[M:4/4] [F,E]2 [F,A,E]2 [F,B,F]2 [F,E]2 | %17
[M:3/4] [B,,F,]6 |] %18
V:3
 x8 | x8 | x8 | z2 C>C C2 F>c |[M:3/4] z2[K:bass] B,>B, B,2 |[M:1/4] x2 |[M:4/4][K:treble] x8 | %7
 x8 | x8 | x8 | z2 B,2 B,2 .[B,FB]2 | B,2 B,2 B,2 (3GAB | x8 | x8 | z2 B,2 B,2 .[B,FB]2 | %15
[M:9/8] [E-G]6 E z z |[M:4/4] x8 |[M:3/4] x6 |] %18
V:4
 x8 | x8 | x8 | z2 F,>F, F,2 E>E |[M:3/4] z2 B,,>B,, B,,2 |[M:1/4] x2 |[M:4/4] x8 | x8 | x8 | x8 | %10
 z4 z2 D,2 | x8 | z2 [C,C]2 z4 | x7/2[K:treble] x5/2[K:bass] x2 | z4 z2 D,2 |[M:9/8] x9 | %16
[M:4/4] x8 |[M:3/4] x6 |] %18

